X:1
T:Sowing and Reaping
T:Sowing and Reaping
T:Solomon W. Straub
T:Ada L. Bobbitt, 1880
T:Public Domain Courtesy of the Cyber Hymnal™
C:Solomon W. Straub
Z:Public Domain
Z:Courtesy of the Cyber Hymnal™
%%score ( 1 2 ) ( 3 4 )
L:1/8
Q:1/4=72
M:2/4
K:A
V:1 treble 
V:2 treble 
V:3 bass 
V:4 bass 
V:1
 E | [EA][EA] [Ec][CA] | [EB]>[Ec] [EB]E | [EB][EB] [Ed][EB] | [Ec]>[Fd] [Ec]E | FG AB | %6
w: 1.~Oh!|sow- er, dost thou|sow good seed? And|dost thou no- bly|bear thy part? The|world can on- ly|
w: 2.~For-|get not that on|ev- ery life A-|round, you cast some|light or shade! Pre-|pare then for the|
w: 3.~A-|gainst the wrong and|for the right, Ah!|yes, brave heart, there’s|need for you! The|field for har- vest|
 c>B A[EA] | [Fd][Ec] [EB][Ed] | [DB]>[CA] !fermata![CA] ||"^Refrain" E | [Bd]>[GB] [Ac]>A | %11
w: see the deeds, While|God, in Heav- en,|knows the heart.|||
w: world’s great strife; By|pa- tient toil are|true lives made.|The|hour is sun- lit,|
w: still is white; The|la- bor- ers are|all too few.|||
 ([Ac]/[GB]/)[GB] [GB]E | [Bd]>[GB] [Ac]>A | ([Ac]/[GB]/)[GB] [GB]E | [EA][EA] [GB][GB] | %15
w: ||||
w: Heav- * en blest, Which|sees some no- ble|work * be- gun; Nor|cease, nor id- ly|
w: ||||
 [Ae]>[Ac] A (A/G/) | F/[Fd]/[Ec]/[DB]/ [Ec][DB] | [CA]3 |] %18
w: |||
w: wish for rest Be- *|fore thy toil hath vic- tory|won.|
w: |||
V:2
 E | x4 | x3 E | x4 | x3 E | FG AB | c>B A x | x4 | x3 || E | x7/2 A/ | x3 E | x7/2 A/ | x3 E | %14
 x4 | x2 AE | F/ x7/2 | x3 |] %18
V:3
 [A,C] | [A,C][A,C] A,A, | [E,G,]>[E,A,] [E,G,][E,G,] | [E,G,][E,G,] [E,B,][E,G,] | A,>A, A,E, | %5
 F,G, A,B, | C>B, A,[A,C] | A,A, [E,G,][E,G,] | A,>A, !fermata!A, || [E,E] | %10
 [E,E]>[E,E] [A,E]>[A,C] | [E,E][E,E] [E,E][E,E] | [E,E]>[E,E] [A,E]>[A,C] | [E,E][E,E] [E,E]E | %14
 [C,E][C,E] [E,E][E,E] | [A,C]>[A,E] [A,C][C,A,] | [D,A,]/[D,A,]/[D,A,]/[D,A,]/ [E,A,][E,G,] | %17
 [A,,A,]3 |] %18
V:4
 x | x2 A,A, | x4 | x4 | A,>A, A,E, | F,G, A,B, | C>B, A, x | A,A, x2 | A,>A, A, || x | x4 | x4 | %12
 x4 | x3 (E,/D,/) | x4 | x4 | x4 | x3 |] %18

